!! George Gerswhin, "I've Got a "Crush on You" from
!! "Bumper Book of George Gerswhin,"
!! London: Chappell Music Ltd., 1987; pp.176-179
**kern
*M2/4
*MM[Allegretto giocoso]
!! Verse
8f
=1
8b-
8cc
8dd
8cc
=2
8ee-
8dd
8r
8cc
=3
8b-
8a
8cc
8b-
=4
8a
8g
8r
8f
=5
[2d
=6
8d]
8g
8f
8e-
=7
[2f
=8
4.f]
8f
=9
8b-
8cc
8dd
8cc
=10
8ee-
8dd
8r
8cc
=11
8b-
8a
8cc
8b-
=12
8a
8g
8r
8f
=13
[2f#
=14
8f#]
8bn
8a
8g
=15
[2a
=16
2a]
=17
4cc
4dd
=18
8b-
8b-
8b-
8b-
=19
8b-
8b-
8cc
8cc
=20
2dd
=21
4cc
4dd
=22
8b-
8b-
8b-
8b-
=23
8b-
8b-
8a
8a
=24
4.f
8f
=25
8b-
8cc
8dd
8cc
=26
8ee-
8dd
8r
8cc
=27
8b-
8a
8cc
8b-
=28
8a
8g
8r
8f
=29
[2en
=30
8en]
8dd
8cc
8bb-
=31
[2cc
=32
8cc]
8f
8g
8g#
!! Refrain
=33
8a
8cc
8r
[8a
=34
2a]
=35
8g
8b-
8r
[8dd
=36
2dd]
=37
8a
8a
8cc
8cc
=38
8a
4.a
=39
8g
8b-
8r
[8dd
=40
4.dd]
8cc
=41
4ff
8dd
[8cc
=42
8cc]
8b-
4dd
=43
4.a
[8g
=44
8g]
8cc
8dd
8cc
=45
4.a
8g-
=46
8g
8cc
8dd
8cc
=47
4.dd
[8cc
=48
4.cc]
8r
=49
8a
8cc
8r
[8a
=50
2a]
=51
8g
8b-
8r
[8dd
=52
2dd]
=53
8a
8a
8cc
8c
=54
8a
4.a
=55
8g
8b-
8r
[8ee-
=56
4.ee-]
8dd
=57
8ff
8r
8dd
[8cc
=58
8cc]
8b-
4dd
=59
4a
4r
=60
8d
8f
8g
8b-
=61
8dd
8r
8cc#
[8dd
=62
8dd]
8cc#
4dd
=63
!! First ending
[2b-
=64
8b-]
8f
8g
8g#
!! Refrain
=33
8a
8cc
8r
[8a
=34
2a]
=35
8g
8b-
8r
[8dd
=36
2dd]
=37
8a
8a
8cc
8cc
=38
8a
4.a
=39
8g
8b-
8r
[8dd
=40
4.dd]
8cc
=41
4ff
8dd
[8cc
=42
8cc]
8b-
4dd
=43
4.a
[8g
=44
8g]
8cc
8dd
8cc
=45
4.a
8g-
=46
8g
8cc
8dd
8cc
=47
4.dd
[8cc
=48
4.cc]
8r
=49
8a
8cc
8r
[8a
=50
2a]
=51
8g
8b-
8r
[8dd
=52
2dd]
=53
8a
8a
8cc
8c
=54
8a
4.a
=55
8g
8b-
8r
[8ee-
=56
4.ee-]
8dd
=57
8ff
8r
8dd
[8cc
=58
8cc]
8b-
4dd
=59
4a
4r
=60
8d
8f
8g
8b-
=61
8dd
8r
8cc#
[8dd
=62
8dd]
8cc#
4dd
=63
!! Second ending
[2b-
=64
8b-]
8r
8r
====
*-
